packages/assets/static/images/icons/basketball.svg

<svg width="24" height="24" viewBox="0 0 24 24" xmlns="http://www.w3.org/2000/svg">
<path d="M12 1.87549C9.99747 1.87549 8.0399 2.46931 6.37486 3.58186C4.70981 4.69441 3.41206 6.27572 2.64572 8.12582C1.87939 9.97592 1.67888 12.0117 2.06955 13.9758C2.46023 15.9398 3.42454 17.7439 4.84055 19.1599C6.25656 20.576 8.06066 21.5403 10.0247 21.9309C11.9888 22.3216 14.0246 22.1211 15.8747 21.3548C17.7248 20.5884 19.3061 19.2907 20.4186 17.6256C21.5312 15.9606 22.125 14.003 22.125 12.0005C22.122 9.31609 21.0543 6.74248 19.1562 4.84432C17.258 2.94616 14.6844 1.87847 12 1.87549ZM5.625 16.6205C4.8747 15.5883 4.38778 14.3886 4.20657 13.1255H7.04438C6.8647 14.3892 6.37729 15.5894 5.625 16.6205ZM4.20657 10.8755C4.38778 9.61238 4.8747 8.41263 5.625 7.38049C6.37729 8.41162 6.8647 9.61181 7.04438 10.8755H4.20657ZM10.875 19.7939C9.54409 19.6016 8.285 19.0702 7.21875 18.2508C8.38414 16.7728 9.10994 14.9966 9.31313 13.1255H10.875V19.7939ZM10.875 10.8755H9.31313C9.10994 9.00433 8.38414 7.22815 7.21875 5.75018C8.285 4.93076 9.54409 4.39936 10.875 4.20705V10.8755ZM18.375 7.38049C19.1253 8.41263 19.6122 9.61238 19.7934 10.8755H16.9556C17.1353 9.61181 17.6227 8.41162 18.375 7.38049ZM13.125 19.7939V13.1255H14.6869C14.8901 14.9966 15.6159 16.7728 16.7813 18.2508C15.715 19.0702 14.4559 19.6016 13.125 19.7939ZM14.6869 10.8755H13.125V4.20705C14.4559 4.39936 15.715 4.93076 16.7813 5.75018C15.6159 7.22815 14.8901 9.00433 14.6869 10.8755ZM18.375 16.6205C17.6227 15.5894 17.1353 14.3892 16.9556 13.1255H19.7934C19.6122 14.3886 19.1253 15.5883 18.375 16.6205Z"/>
</svg>

<svg viewBox="0 0 24 24" xmlns="http://www.w3.org/2000/svg" aria-hidden="true" fill="currentColor" height="24px" width="24px"><path d="M12 1.875A10.125 10.125 0 1 0 22.125 12 10.137 10.137 0 0 0 12 1.876M5.625 16.621a7.84 7.84 0 0 1-1.418-3.495h2.837a7.8 7.8 0 0 1-1.419 3.495m-1.418-5.745A7.84 7.84 0 0 1 5.625 7.38a7.8 7.8 0 0 1 1.42 3.496zm6.668 8.918a7.84 7.84 0 0 1-3.656-1.543 10.03 10.03 0 0 0 2.094-5.126h1.562zm0-8.918H9.313A10.03 10.03 0 0 0 7.22 5.75a7.84 7.84 0 0 1 3.656-1.543zm7.5-3.496a7.84 7.84 0 0 1 1.418 3.496h-2.837a7.8 7.8 0 0 1 1.419-3.496m-5.25 12.414v-6.668h1.562a10.03 10.03 0 0 0 2.094 5.125 7.84 7.84 0 0 1-3.656 1.543m1.562-8.918h-1.562V4.207a7.84 7.84 0 0 1 3.656 1.543 10.03 10.03 0 0 0-2.094 5.126m3.688 5.745a7.8 7.8 0 0 1-1.42-3.495h2.838a7.84 7.84 0 0 1-1.418 3.495"/></svg>
